!!!COM: Gonzaga, Francisca
!!!CDT: 1847/10/17-1935/02/28
!!!OTL: Carijo
!!!OPR: Tangos
**kern	**kern
*part1	*part1
*staff2	*staff1
*>[I,A,A1,A,A2,B,B1,B,B2,A,C]	*>[I,A,A1,A,A2,B,B1,B,B2,A,C]
*>I	*
*clefF4	*clefG2
*k[b-e-a-d-g-]	*k[b-e-a-d-g-]
*M2/4	*M2/4
=1	=1
*b-:	*
2r	4r
.	8r
.	8ff
=2||	=2||
2r	8bb-
.	16r
.	(48gg-LLL
.	48aa-
.	48gg-JJJ
.	(8ffL)
.	8dd-J)
=3	=3
2r	4b-
.	(8ccL
.	8ffJ)
=4	=4
2r	4.f
.	8cc
=5	=5
2r	4.ff
.	8r
=6!|:	=6!|:
*>A	*
!	!LO:TX:a:t=[segno]!
16BB-KL	16b-KL
8B- 8d- 8f	8ff
16B-Jk 16d- 16f	16ffJk
8D-L	8ff
8B-J 8d- 8f	16r
.	48b-LLL
.	48cc
.	48b-JJJ
=7	=7
16CKL	16anKL
8An 8c 8e- 8f	8ff
16AJk 16c 16e- 16f	16ffJk
8FL	8ff
8AJ 8c 8e- 8f	16r
.	48aLLL
.	48b-
.	48aJJJ
=8	=8
16AA-KL	16g-KL
8G- 8A- 8c	8ee-
16G-Jk 16A- 16c	16ee-Jk
8CL	8ee-
8G-J 8A- 8c	16r
.	48g-LLL
.	48a-
.	48g-JJJ
=9	=9
16D-KL	16fKL
8F 8A- 8d-	8dd-
16FJk 16A- 16d-	16dd-Jk
8AA-L	8dd-
8FJ 8A- 8d-	8r
=10	=10
16FFKL	16ccKL
8An 8c 8e-	8ff
16AJk 16c 16e-	[16fJk
8FL	8f]
8AJ 8c 8e-	8r
=11	=11
16D-KL	16b-KL
8F 8B- 8d-	8ff
16FJk 16B- 16d-	[16fJk
8BB-L	8f]
8FJ 8B- 8d-	8r
=12	=12
16G-KL 16B- 16c 16e-	16b-KL
8G- 8B- 8c 8e-	8b-
16G-Jk 16B- 16c 16e-	16b-Jk
8G-L 8B- 8c 8e-	8b-L
8G-J 8B- 8c 8e-	8ccJ
=13	=13
16FLL 16An 16c 16e-	4f
(16A	.
16c	.
16e-JJ	.
16g-LL	4r
16f	.
16c	.
16d-JJ)	.
=14	=14
16BB-KL	16b-KL
8B- 8d- 8f	8ff
16B-Jk 16d- 16f	16ffJk
8D-L	(16ffLL
.	16b-
8B-J 8d- 8f	16dd-
.	16ffJJ)
=15	=15
16CKL	16anKL
8An 8c 8e- 8f	8ff
16AJk 16c 16e- 16f	16ffJk
8FL	(16ffLL
.	16a
8AJ 8c 8e- 8f	16cc
.	16ffJJ)
=16	=16
16E-KL	16g-KL
8G- 8B- 8e-	8ee-
16G-Jk 16B- 16e-	16ee-Jk
8AA-L	(16ee-LL
.	16g-
8G-J 8A- 8c	16a-
.	16ee-JJ)
=17	=17
16D-KL	16fKL
8F 8A- 8d-	8dd-
16FJk 16A- 16d-	16dd-Jk
8BB-L	16dd-LL
.	16f
8FJ 8B- 8d-	16b-
.	16dd-JJ
=18	=18
16FFKL	16ccKL
8An 8c 8e-	8ff
16AJk 16c 16e-	16fJk
8FL	(16fLL
.	16cc
8AJ 8c 8e-	16ff
.	16fJJ)
=19	=19
16D-KL	16b-KL
8B- 8d- 8f	8bb-
16B-Jk 16d- 16f	16ffJk
8G-L	(16aa-LL
.	16gg-
8B-J 8e- 8g-	16ee-
.	16ccJJ)
=20	=20
16FFKL	(16ffLL
8F 8B- 8d-	16dd-
.	16b-
16FJk 16B- 16d-	16fJJ)
8FFL	8ccL
8FJ 8An 8e-	8ffJ
!	!LO:TX:a:t=[coda]
=21	=21
*>A1	*
8B-L 8d-	8b-
[8FJ	8r
4F]	4r
=22:|!	=22:|!
*>A2	*
4B- 4d-	8b-L
.	8fJ
*D-:	*
4A-^	4c^ 4g- 4a-
=23!|:	=23!|:
*>B	*
16AA-KL	4a-
8A- 8c 8e-	.
16A-Jk 16c 16e-	.
8G-L	16r
.	(16a-LL
8A-J 8c 8e-	16ee-
.	16ffJJ)
=24	=24
16FKL	4dd-
8A- 8d- 8f	.
16A-Jk 16d- 16f	.
8AA-L	16r
.	(16ffLL
8A-J 8d- 8f	16aa-
.	16ddd-JJ)
=25	=25
16E-KL	(16cccLL
8A- 8c 8g-	16gg-
.	16bb-
16A-Jk 16c 16g-	16ee-JJ
8AA-L	16gg-LL
.	16cc
8A-J 8c 8g-	16ee-
.	16a-JJ)
=26	=26
16D-KL	16ffLL
8A- 8d- 8f	(16bb-
.	16aa-
16A-Jk 16d- 16f	16ffJJ
8FL	16dd-LL
.	16ff
8A-J 8d- 8f	16b-
.	16ccJJ)
=27	=27
16E-KL	4a-
8G- 8A- 8c	.
16G-Jk 16A- 16c	.
8AA-L	16r
.	(16a-LL
8G-J 8A- 8c	16ee-
.	16ffJJ)
=28	=28
16D-KL	4dd-
8F 8A- 8d-	.
16FJk 16A- 16d-	.
8AA-L	16r
.	(16ffLL
8FJ 8A- 8d-	16aa-
.	16ddd-JJ)
=29	=29
16GG-KL	16fffLL
8G- 8B- 8e-	16eee-
.	16ddd-
16G-Jk 16B- 16e-	16bb-JJ
8AA-L	16aa-LL
.	16gg-
8G-J 8A- 8c 8e-	16ee-
.	16ffJJ
=30	=30
*>B1	*
8D- 8A- 8d-	8d- 8a- 8dd-
8r	8r
4r	4a-
=31:|!	=31:|!
*>B2	*
8D- 8A- 8d-	8dd-
8r	8r
8DD- 8D-	8dd- 8ff 8aa- 8ddd-
8r	8r
!	!LO:TX:a:t=D.S. al Coda
=32||	=32||
!	!LO:TX:a:t=[coda]
*>C	*
*b-:	*
16BB-KL 16B-	4d- 4f 4b-
8FF 8F	.
16DD-Jk 16D-	.
8BBB-^ 8BB-	8b-^ 8dd- 8ff 8bb-
8r	8r
==	==
*-	*-
!!!system-decoration: {(s1,s2)}
!!!AGN: Tango
!!!EED: Florian Moldaschl
!!!END: 2025/12/23
!!!ENC: Florian Moldaschl
!!!EEV: 2026/01/14
!!!title: @{OPR}, @{SCT} №@{ONM}